X:1
T: Mr Grant of Rothymurchus' Strathspey
C:
R:Strathspey
Q: 128
K:D
M:4/4
L:1/16
|:B2|AD3 F3D A,3D B,3D|A,3D G3A BAGF E3B|AD3 F3D A,3F B,3D|A,3B, D3E FD3 D3B|
AD3 F3D A,3D B,3D|A,3D G3A BAGF E3A|FA3 d3A B3d g3b|a3f e3g f2d2 d2fg|
agfe d2f2 A3d F3A|GE3 FD3 BE3 E3g|agfe d3f A3d F2A2|B3g f3e f2d2 d2g2|
agfe f2d2 A3d F3A|G3E F3D BE3 E3F|A,3D A,3D B,3D G3B|AF3 E3G FD3 D2:|
